front/assets/images/stat-diagnostics-cyber.svg

<svg width="96" height="96" viewBox="0 0 96 96" fill="none" xmlns="http://www.w3.org/2000/svg">
<path fill-rule="evenodd" clip-rule="evenodd" d="M90 74.3994C89.34 74.3994 88.8 73.8594 88.8 73.1994C88.8 72.5394 89.34 71.9994 90 71.9994C90.66 71.9994 91.2 72.5394 91.2 73.1994C91.2 73.8594 90.66 74.3994 90 74.3994Z" fill="#FFF7DB"/>
<path fill-rule="evenodd" clip-rule="evenodd" d="M66 4.79941C65.34 4.79941 64.8 4.25941 64.8 3.59941C64.8 2.93941 65.34 2.39941 66 2.39941C66.66 2.39941 67.2 2.93941 67.2 3.59941C67.2 4.25941 66.66 4.79941 66 4.79941Z" fill="#FFF7DB"/>
<path fill-rule="evenodd" clip-rule="evenodd" d="M3.59999 64.7994C2.93999 64.7994 2.39999 64.2594 2.39999 63.5994C2.39999 62.9394 2.93999 62.3994 3.59999 62.3994C4.25999 62.3994 4.79999 62.9394 4.79999 63.5994C4.79999 64.2594 4.25999 64.7994 3.59999 64.7994Z" fill="#FFF7DB"/>
<path d="M61.2 25.1996H30C29.34 25.1996 28.8 24.6596 28.8 23.9996C28.8 23.3396 29.34 22.7996 30 22.7996H61.2C61.86 22.7996 62.4 23.3396 62.4 23.9996C62.4 24.6596 61.86 25.1996 61.2 25.1996Z" fill="#FED980"/>
<path d="M54 29.9996H30C29.34 29.9996 28.8 29.4596 28.8 28.7996C28.8 28.1396 29.34 27.5996 30 27.5996H54C54.66 27.5996 55.2 28.1396 55.2 28.7996C55.2 29.4596 54.66 29.9996 54 29.9996Z" fill="#FED980"/>
<path d="M61.2 39.5996H30C29.34 39.5996 28.8 39.0596 28.8 38.3996C28.8 37.7396 29.34 37.1996 30 37.1996H61.2C61.86 37.1996 62.4 37.7396 62.4 38.3996C62.4 39.0596 61.86 39.5996 61.2 39.5996Z" fill="#FED980"/>
<path d="M54 44.3996H30C29.34 44.3996 28.8 43.8596 28.8 43.1996C28.8 42.5396 29.34 41.9996 30 41.9996H54C54.66 41.9996 55.2 42.5396 55.2 43.1996C55.2 43.8596 54.66 44.3996 54 44.3996Z" fill="#FED980"/>
<path d="M73.2 86.3996H46.8C46.38 86.3996 45.984 86.1716 45.768 85.8116C45.552 85.4516 45.54 84.9956 45.744 84.6236L58.944 60.6236C59.364 59.8556 60.624 59.8556 61.044 60.6236L74.244 84.6236C74.448 84.9956 74.448 85.4516 74.22 85.8116C74.004 86.1716 73.608 86.3996 73.188 86.3996H73.2ZM48.828 83.9996H71.172L60 63.6956L48.828 83.9996Z" fill="#FED980"/>
<path d="M60 76.7996C59.34 76.7996 58.8 76.2596 58.8 75.5996V70.7996C58.8 70.1396 59.34 69.5996 60 69.5996C60.66 69.5996 61.2 70.1396 61.2 70.7996V75.5996C61.2 76.2596 60.66 76.7996 60 76.7996Z" fill="#FED980"/>
<path d="M60 81.5996C59.844 81.5996 59.688 81.5756 59.544 81.5156C59.4 81.4556 59.268 81.3596 59.148 81.2516C59.04 81.1436 58.956 81.0116 58.896 80.8556C58.836 80.7116 58.8 80.5556 58.8 80.3996C58.8 80.2436 58.836 80.0876 58.896 79.9436C58.956 79.7996 59.04 79.6676 59.148 79.5476C59.268 79.4396 59.4 79.3556 59.544 79.2956C59.832 79.1756 60.168 79.1756 60.456 79.2956C60.6 79.3556 60.732 79.4396 60.852 79.5476C60.96 79.6676 61.056 79.7996 61.116 79.9436C61.176 80.0876 61.2 80.2436 61.2 80.3996C61.2 80.7236 61.08 81.0236 60.852 81.2516C60.732 81.3596 60.6 81.4556 60.456 81.5156C60.312 81.5756 60.156 81.5996 60 81.5996Z" fill="#FED980"/>
<path d="M22.8 14.3994H68.4C69.06 14.3994 69.6 14.9394 69.6 15.5994V63.5994C69.624 65.2314 67.224 65.2434 67.188 63.5994V16.7994H24V79.1994H42C43.632 79.1994 43.62 81.5874 42 81.5874H22.8C22.14 81.5874 21.6 81.0594 21.6 80.3994V15.5994C21.6 14.9394 22.14 14.3994 22.8 14.3994Z" fill="#0D0C21"/>
<path d="M74.4 73.2114V25.0554C74.328 24.4554 73.812 23.9994 73.2 23.9994H73.056C72.456 24.0714 72 24.5874 72 25.1994C72 25.1994 72 72.2514 72 73.1994C72.024 74.8074 74.412 74.7954 74.4 73.1994V73.2114Z" fill="#0D0C21"/>
<path d="M61.2 53.9994H30C29.34 53.9994 28.8 53.4594 28.8 52.7994C28.8 52.1394 29.34 51.5994 30 51.5994H61.2C61.86 51.5994 62.4 52.1394 62.4 52.7994C62.4 53.4594 61.86 53.9994 61.2 53.9994Z" fill="#0D0C21"/>
<path d="M54 58.7994H30C29.34 58.7994 28.8 58.2594 28.8 57.5994C28.8 56.9394 29.34 56.3994 30 56.3994H54C54.66 56.3994 55.2 56.9394 55.2 57.5994C55.2 58.2594 54.66 58.7994 54 58.7994Z" fill="#0D0C21"/>
<path d="M48 68.3994H30C29.34 68.3994 28.8 67.8594 28.8 67.1994C28.8 66.5394 29.34 65.9994 30 65.9994H48C48.66 65.9994 49.2 66.5394 49.2 67.1994C49.2 67.8594 48.66 68.3994 48 68.3994Z" fill="#0D0C21"/>
<path d="M45.6 73.1994H30C29.34 73.1994 28.8 72.6594 28.8 71.9994C28.8 71.3394 29.34 70.7994 30 70.7994H45.6C46.26 70.7994 46.8 71.3394 46.8 71.9994C46.8 72.6594 46.26 73.1994 45.6 73.1994Z" fill="#0D0C21"/>
<path d="M39.6 83.9994H32.256C31.656 84.0834 31.2 84.5874 31.2 85.1994C31.2 85.8594 31.74 86.3994 32.4 86.3994L39.6 86.3514C41.232 86.3874 41.244 83.9874 39.6 83.9994Z" fill="#0D0C21"/>
</svg>

<svg xmlns="http://www.w3.org/2000/svg" width="96" height="96" fill="none"><path fill="#FFF7DB" fill-rule="evenodd" d="M90 74.4c-.66 0-1.2-.54-1.2-1.2S89.34 72 90 72s1.2.54 1.2 1.2-.54 1.2-1.2 1.2M66 4.8c-.66 0-1.2-.54-1.2-1.2s.54-1.2 1.2-1.2 1.2.54 1.2 1.2-.54 1.2-1.2 1.2m-62.4 60c-.66 0-1.2-.54-1.2-1.2s.54-1.2 1.2-1.2 1.2.54 1.2 1.2-.54 1.2-1.2 1.2" clip-rule="evenodd"/><path fill="#FED980" d="M61.2 25.2H30c-.66 0-1.2-.54-1.2-1.2s.54-1.2 1.2-1.2h31.2c.66 0 1.2.54 1.2 1.2s-.54 1.2-1.2 1.2M54 30H30c-.66 0-1.2-.54-1.2-1.2s.54-1.2 1.2-1.2h24c.66 0 1.2.54 1.2 1.2S54.66 30 54 30m7.2 9.6H30c-.66 0-1.2-.54-1.2-1.2s.54-1.2 1.2-1.2h31.2c.66 0 1.2.54 1.2 1.2s-.54 1.2-1.2 1.2M54 44.4H30c-.66 0-1.2-.54-1.2-1.2S29.34 42 30 42h24c.66 0 1.2.54 1.2 1.2s-.54 1.2-1.2 1.2m19.2 42H46.8c-.42 0-.816-.228-1.032-.588a1.2 1.2 0 0 1-.024-1.188l13.2-24c.42-.768 1.68-.768 2.1 0l13.2 24a1.17 1.17 0 0 1-.024 1.188c-.216.36-.612.588-1.032.588zM48.828 84h22.344L60 63.696z"/><path fill="#FED980" d="M60 76.8c-.66 0-1.2-.54-1.2-1.2v-4.8c0-.66.54-1.2 1.2-1.2s1.2.54 1.2 1.2v4.8c0 .66-.54 1.2-1.2 1.2m0 4.8c-.156 0-.312-.024-.456-.084a1.4 1.4 0 0 1-.396-.264 1.1 1.1 0 0 1-.252-.396c-.06-.144-.096-.3-.096-.456s.036-.312.096-.456q.09-.216.252-.396.18-.162.396-.252a1.2 1.2 0 0 1 .912 0q.216.09.396.252c.108.12.204.252.264.396s.084.3.084.456c0 .324-.12.624-.348.852-.12.108-.252.204-.396.264s-.3.084-.456.084"/><path fill="#0D0C21" d="M22.8 14.4h45.6c.66 0 1.2.54 1.2 1.2v48c.024 1.631-2.376 1.643-2.412 0V16.8H24v62.4h18c1.632 0 1.62 2.387 0 2.387H22.8c-.66 0-1.2-.528-1.2-1.188V15.6c0-.66.54-1.2 1.2-1.2m51.6 58.811V25.055A1.21 1.21 0 0 0 73.2 24h-.144c-.6.072-1.056.588-1.056 1.2v48c.024 1.608 2.412 1.596 2.4 0z"/><path fill="#0D0C21" d="M61.2 54H30c-.66 0-1.2-.54-1.2-1.2s.54-1.2 1.2-1.2h31.2c.66 0 1.2.54 1.2 1.2s-.54 1.2-1.2 1.2M54 58.8H30c-.66 0-1.2-.54-1.2-1.2s.54-1.2 1.2-1.2h24c.66 0 1.2.54 1.2 1.2s-.54 1.2-1.2 1.2m-6 9.6H30c-.66 0-1.2-.54-1.2-1.2S29.34 66 30 66h18c.66 0 1.2.54 1.2 1.2s-.54 1.2-1.2 1.2m-2.4 4.8H30c-.66 0-1.2-.54-1.2-1.2s.54-1.2 1.2-1.2h15.6c.66 0 1.2.54 1.2 1.2s-.54 1.2-1.2 1.2m-6 10.8h-7.344a1.204 1.204 0 0 0 .144 2.4l7.2-.049c1.632.036 1.644-2.364 0-2.352"/></svg>
